X: 20262
M: 3/8
L: 1/16
K: G
(Bc) |\
(^cd)(cd)(BG) | (^cd)(cd)(BG) | (FG)(FG)(^GA) | D4 (GF) |\
(EF)(E^D)(E^G) | (AB)(cd)(ec) | (Bc)(BA)(Bd) | A4 (Bc) |
(^cd)(cd)(BG) | (^cd)(cd)(BG) | (^FG)(FG)(^GA) | D4 (GF) |\
(Ee)(^de)(=dc) | (Bd)(Bd)(cA) | (GF)(GB)(dB)  "^Fine"G4 :|
(cA) |\
(FD)(FA)(cA) | F4 dB | (GD)(GB)(dB) | G4 (Bd) |\
(^cA)(ce)(ge) | (^cA)(ce)(ge) | (d^c)(df)(af) | d4 (=cA) |
(^cd)(cB)(cd) | (ef)(ge)(d^c) | (de)(fg)(af) | "^D.C."d4 |]


